!!!COM: Palestrina, Giovanni Perluigi da
!!!OPR: Missa In semidupl. maj. (I)
!!!OMD: Gloria
!!!OTL: Amen
**kern	**kern	**kern	**kern	**kern
*Ibass	*Itenor	*Itenor	*Icalto	*Icant
!Bassus	!Tenor 2	!Tenor 1	!Altus	!Cantus
*clefF4	*clefGv2	*clefGv2	*clefG2	*clefG2
*k[b-]	*k[b-]	*k[b-]	*k[b-]	*k[b-]
*F:ion	*F:ion	*F:ion	*F:ion	*F:ion
*M4/2	*M4/2	*M4/2	*M4/2	*M4/2
=129	=129	=129	=129	=129
0r	0r	0r	1c	1r
.	.	.	1d	1f
=130	=130	=130	=130	=130
0r	1r	0r	1e	1g
.	1F	.	1f	1a
=131	=131	=131	=131	=131
0r	1G	0r	2e	1b-
.	.	.	2d	.
.	1A	.	4c	1a
.	.	.	4d	.
.	.	.	4e	.
.	.	.	4f	.
=132	=132	=132	=132	=132
0r	1B-	0r	1d	2f
.	.	.	.	1g
.	1A	.	[1c	.
.	.	.	.	[2f
=133	=133	=133	=133	=133
1C	1G	1r	1c]	2f]
.	.	.	.	2e
1D	4F	1F	1A	1a
.	4G	.	.	.
.	4A	.	.	.
.	4B-	.	.	.
=134	=134	=134	=134	=134
1E	2c	1G	2r	1g
.	2C	.	2.c	.
1F	2r	1A	.	[1f
.	.	.	4B-	.
.	[2F	.	2c	.
=135	=135	=135	=135	=135
2.BB-	4F]	1B-	1d	0f]
.	4E	.	.	.
.	4D	.	.	.
4C	4E	.	.	.
4D	4F	1A	2r	.
4E	4G	.	.	.
[2F	2A	.	2c	.
=136	=136	=136	=136	=136
2F]	2B-	1G	2d	2r
2E	4c	.	2e	2g
.	4G	.	.	.
1D	1d	1F	2f	2a
.	.	.	2d	2b-
=137	=137	=137	=137	=137
2.C	2r	1E	2e	1cc
.	2G	.	2.g	.
4BB-	.	.	.	.
2AA	2A	1F	.	2c
.	.	.	4f	.
2D	2B-	.	[2f	2d
=138	=138	=138	=138	=138
0C	0c	0G	2f]	2.e
.	.	.	4e	.
.	.	.	4d	4f
.	.	.	1e	1g
=139	=139	=139	=139	=139
[0FF	[0c	[0F	[0f	[0a
=140	=140	=140	=140	=140
0FF]	0c]	0F]	0f]	0a]
==	==	==	==	==
*-	*-	*-	*-	*-
!!!CDT: 1525/^1526/-1594/2/2
!!!OCY: Italia
!!!AGN: Mass (Paraphrase)
!!!AST: renaissance, vocal
!!!ASW: Gregorian Mass
!!!PWK: Masses, Book Mantuan II
!!!RNB: Cadence finals: C
!!!YOR: Le Opere Complete, v. 19, p. 129
!!!YOO: Rome, Italy: Fratelli Scalera
!!!END: 1992//
!!!EED: John Miller
!!!YEC: Copyright 2000, John Miller
!!!YEN: United States of America
!!!YEM: Rights to all derivative electronic formats reserved.
!!!YEM: Refer to licensing agreement for further details.
!!!YEM: This file must be accompanied by the licensing agreement.
!!!YEM: A copy of the licensing agreement may be found at http://www.music-cog.ohio-state.edu/HumdrumDatabases/Palestrina/license.txt
!!!EMD: converted to Humdrum by Bret Aarden
